src/assets/duotone/Discover.svg

<svg width="24" height="24" viewBox="0 0 24 24"  xmlns="http://www.w3.org/2000/svg">
<path opacity="0.4" d="M20.9799 3.01986C20.1099 2.14986 18.8799 1.80986 17.6899 2.10986L7.88986 4.55986C6.23986 4.96986 4.96986 6.24986 4.55986 7.88986L2.10986 17.6999C1.80986 18.8899 2.14986 20.1199 3.01986 20.9899C3.67986 21.6399 4.54986 21.9999 5.44986 21.9999C5.72986 21.9999 6.01986 21.9699 6.29986 21.8899L16.1099 19.4399C17.7499 19.0299 19.0299 17.7599 19.4399 16.1099L21.8899 6.29986C22.1899 5.10986 21.8499 3.87986 20.9799 3.01986Z" />
<path d="M12.0001 15.8801C14.143 15.8801 15.8801 14.143 15.8801 12.0001C15.8801 9.85725 14.143 8.12012 12.0001 8.12012C9.85725 8.12012 8.12012 9.85725 8.12012 12.0001C8.12012 14.143 9.85725 15.8801 12.0001 15.8801Z" />
</svg>

<?xml version="1.0" encoding="UTF-8"?>
<svg width="24" height="24" viewBox="0 0 24 24" xmlns="http://www.w3.org/2000/svg">
 <path d="m20.98 3.0199c-0.87-0.87-2.1-1.21-3.29-0.91l-9.8 2.45c-1.65 0.41-2.92 1.69-3.33 3.33l-2.45 9.81c-0.3 1.19 0.04 2.42 0.91 3.29 0.66 0.65 1.53 1.01 2.43 1.01 0.28 0 0.57-0.03 0.85-0.11l9.81-2.45c1.64-0.41 2.92-1.68 3.33-3.33l2.45-9.81c0.3-1.19-0.04-2.42-0.91-3.28z" opacity=".4"/>
 <path d="m12 15.88c2.1429 0 3.88-1.7371 3.88-3.88 0-2.1428-1.7371-3.88-3.88-3.88-2.1428 0-3.88 1.7371-3.88 3.88 0 2.1429 1.7371 3.88 3.88 3.88z"/>
</svg>
